pix/i/completion-auto-n.svg

<!DOCTYPE svg PUBLIC "-//W3C//DTD SVG 1.1//EN" "http://www.w3.org/Graphics/SVG/1.1/DTD/svg11.dtd" [
	<!ENTITY ns_flows "http://ns.adobe.com/Flows/1.0/">
]><svg xmlns="http://www.w3.org/2000/svg" width="16" height="16" viewBox="0 0 16 16" preserveAspectRatio="xMinYMid meet" overflow="visible"><path d="M10 0v2H6V0h4zm1 2h1c1.1 0 2 .9 2 2v1h2V2c0-1.1-.9-2-2-2h-3v2zm5 4h-2v4h2V6zm-2 5v1c0 1.1-.9 2-2 2h-1v2h3c1.1 0 2-.9 2-2v-3h-2zm-4 5v-2H6v2h4zm-5-2H4c-1.1 0-2-.9-2-2v-1H0v3c0 1.1.9 2 2 2h3v-2zm-5-4h2V6H0v4zm2-5V4c0-1.1.9-2 2-2h1V0H2C.9 0 0 .9 0 2v3h2z" fill="#999"/></svg>

<svg xmlns="http://www.w3.org/2000/svg" viewBox="0 0 16 16" preserveAspectRatio="xMinYMid meet"><path d="M10,0V2H6V0Zm1,2h1a2,2,0,0,1,2,2V5h2V2a2,2,0,0,0-2-2H11Zm5,4H14v4h2Zm-2,5v1a2,2,0,0,1-2,2H11v2h3a2,2,0,0,0,2-2V11Zm-4,5V14H6v2ZM5,14H4a2,2,0,0,1-2-2V11H0v3a2,2,0,0,0,2,2H5ZM0,10H2V6H0ZM2,5V4A2,2,0,0,1,4,2H5V0H2A2,2,0,0,0,0,2V5Z" fill="#949494"/></svg>
